icon/pk/laptop-one.svg

<svg viewBox="0 0 48 48" fill="none" xmlns="http://www.w3.org/2000/svg" height="1em" width="1em">
  <path d="M8 11C8 9.34315 9.34315 8 11 8H37C38.6569 8 40 9.34315 40 11V32H8V11Z" stroke="black" stroke-width="4" stroke-linejoin="round"/>
  <path d="M4 32H44V34C44 37.3137 41.3137 40 38 40H10C6.68629 40 4 37.3137 4 34V32Z" fill="#2F88FF" stroke="black" stroke-width="4" stroke-linejoin="round"/>
</svg>

<svg width="48" height="48" fill="none" xmlns="http://www.w3.org/2000/svg"><path d="M8 11a3 3 0 0 1 3-3h26a3 3 0 0 1 3 3v21H8V11Z" stroke="#000" stroke-width="4" stroke-linejoin="round"/><path d="M4 32h40v2a6 6 0 0 1-6 6H10a6 6 0 0 1-6-6v-2Z" fill="#2F88FF" stroke="#000" stroke-width="4" stroke-linejoin="round"/></svg>
